X:203
T:Cheshire Round. HA.202, A
M:3/2
L:1/8
Q:1/2=100
S:Henry Atkinson’s original MS,Hartburn,N’umberland,1694.
O:England
A:Hartburn,Northumberland
H:1/8
Z:vmp.Neil Brookes, Jan.2004
K:D
“_No time sig. in ms”d2 “^u”c”^u”B ABAF “^=”E4|c2e4B2c2 BA|\
d2 cB ABAF “^=”E4|D2d4F2″^=”E2D2||
d2f2c2 e2B2c2|A2″^u”e4″^u”B2c2 “^u”B”^u”A|\
d2f2c2 e2B2c2|A2″^u”d4″^u”F2″^=”E2D2||
EDCB, A,B,CD “^=”E4|E2A4E2F2ED|\
EDCB, A,B,CD “^=”E4|D2d4F2″^=”E2D2|]

